!!!COM: Johannes Brahms
!!!CNT: Deutscher
!!!TXO: Deutsche
!!!OTL: Herbstgefu2hl
!!!OPS: Op. 48
!!!ONM: No. 7
!!!LYR: Schack
!!!ENC: Ayako 
!!!YOR: Edition Peters
!!!ODT: 1852/
!!NB: Vocal melody and text only encoded.
**kern	**silbe
*clefG2	*
*k[f#c#g#]	*
*M3/4	*
*MM[adagio]	*
!! tempo indication: ziemlich langsam
=4	=4
4r	.
4r	.
{4cc#	{Wie
=5	=5
2cc#	wenn
4cc#	im
=6	=6
2dd	frost-
4cc#	-gen
=7	=7
2dd	Wind
4b	hauch
=8	=8
2dd	to2d-
4a}	-lich}
=10	=10
4r	.
4r	.
{4a	{des
=11	=11
2a	Som-
4a	-mers
=12	=12
2cc#	letz-
4b	-te
=13	=13
2cc#	Blu2-
4g#	-te
=14	=14
2a}	krankt,}
4r	.
=15	=15
4r	.
4r	.
{4a	{und
=16	=16
2a	hier
4gn	und
=17	=17
2a	da
4e}	nur,}
=18	=18
{2.g#	{gelb
=19	=19
4r	.
4r	.
4e	und
=20	=20
2f#	ro2t-
4d}	-lich,}
=21	=21
4r	.
4r	.
{4f#	{ein
=22	=22
[2.a	einz-
=23	=23
2a]	|
4f#	-les
=24	=24
2d}	Blatt,}
4r	.
=25	=25
4r	.
4r	.
{4b	{ein
=26	=26
([2.dd	einz-
=27	=27
4dd]	|
4cc#)	|
4b	-les
=28	=28
2.b	Blatt
=29	=29
2.a	im
=30	=30
(4g#	Wind-
4a	|
4g#	|
=31	=31
4b	|
4a)	|
4g#	hauch
=32	=32
[2.a	schwankt,
=33	=33
4a]}	|}
4r	.
4r	.
=34	=34
4r	.
4r	.
{4dd	{so
=35	=35
(4dd	schau-
4ccn)	|
4b-	-ert
=36	=36
4a	u2-
4gn	-ber
4a	mein
=37	=37
4fn	Le-
4d}	-ben}
4r	.
=38	=38
4r	.
4r	.
{4dd	{ein
=39	=39
(4ee-	na2ch-
4dd)	|
4ee-	-tig
=40	=40
(4dd	tru2-
4cc#)	|
4dd	-ber,
=41	=41
(4cc#	kal-
4ccn	|
4b	|
=42	=42
4b-	|
4f#)	|
4gn	-ter
=43	=43
2dd}	Tag,}
4r	.
=44	=44
4r	.
4r	.
{4gn	{war-
=45	=45
2dd	-um
4cc#	noch
=46	=46
2dd	vor
4a	dem
=47	=47
([2.a	To-
=48	=48
4a]	|
4b-)	|
4gn	-de
=49	=49
2.gn	be-
=50	=51
4fn}	-ben}
4r	.
{4f	{o
=52	=52
2.e}	Herz,}
=53	=53
4r	.
4r	.
{4dd	{o
=54	=54
2cc#	Herz,
4bn	mit
=55	=55
2a	dei-
4a#	-nem
=56	=56
[2.bn	ew-
=57	=57
2b]	|
4gn	-gen
=57	=63
2f#}	Schlag!}
4r	.
=63	=63
4r	.
4r	.
{4cc#	{Sieh
=64	=64
2cc#	rings
4cc#	ent-
=65	=65
2dd	-bla2t-
4cc#	-tert
=66	=66
2dd	das
4b	Ge-
=67	=67
2dd	sta2u-
4a}	-de!}
=69	=69
4r	.
4r	.
{4a	{Was
=70	=70
2a	spielst
4a	du,
=71	=71
2cc#	wie
4b	der
=72	=72
2cc#	Wind
4g#	am
=73	=73
2a}	Strauch,}
4r	.
=74	=74
4r	.
4r	.
{4a	{noch
=75	=75
2a	mit
4gn	der
=76	=76
2a	letz-
4e	-ten
=77	=77
[2.g#	wel-
=78	=78
4g#]	|
4r	.
4e	-ken
=79	=79
2f#	Freu-
4d}	-de?}
=81	=81
*M6/4	*
2.r	.
{2.f#	{Gib
=82	=82
2.e	dich
2.d	zur
=83	=83
[2.d	Ruh,
2d]}	|}
4r	.
=84	=84
2.r	.
{2.dd	{bald
=85	=85
[2.b	stirbt,
2b]}	|}
4r	.
=86	=86
{1.a	{bald
=87	=87
([2.g#	stirbt-
4g#]	|
4a	|
4g#	|
=88	=88
4.b	|
4.a	|
2.g#)	-sie
=89	=89
2f#}	auch.}
4r	.
2.r	.
*-	*-
